X: 34723
T: Road To Glountane, The
R: barndance
M: 4/4
K: Amajor
E2 E>F A2 A>B|c>ee>c B>A F2|(3fgf e>c A>Bc>A|e>cB>A F>AA>F|
E2- E>F A2- A>B|c2 e>c B>A A2|(3fgf e>c A>Bc>A|e>cB>c A2:|
e2 e>f a2 a>f|e>cB>A F>AA>B|c>BB>A c>BB>A|
[1 c>eB>A F2 a>f|e>ce>f a2- a>f|e>cB>A F>AA>B|c>BB>A c>BB>A|e>c (3BcB A2:|
[2 c>eB>A F2 A>F|E2- E>F A2- A>B|c2 e>c B>c A2|f2 e>c A>Bc>A|e>cB>c A2||
E2 E>F A2 A>B|c<ee>c B>A F2|(3faf e>c A>Bc>A|e>cB>A F<AA>F|
E2- E>F A2- A>B|c2 e>c B>A A2|(3faf e>c A>Bc>A|e<cB>c A2||
e2 e>f a2 a>f|e>cB>A F<AA>B|c>BB>A c>BB>A|c<eB>A F<A (3AGF|
E2- E>F A2- A>B|c2 e>c B<A F2|f2 e>c A>Bc>A|e<cB>c A2||

